resources/icons/cisco/atmswitch.svg

<?xml version="1.0" encoding="UTF-8"?>
<svg xmlns="http://www.w3.org/2000/svg" xmlns:xlink="http://www.w3.org/1999/xlink" width="188pt" height="200pt" viewBox="0 0 188 200" version="1.1">
<g id="surface1">
<path style="fill-rule:nonzero;fill:rgb(3.137255%,48.235294%,73.333333%);fill-opacity:1;stroke-width:0.5;stroke-linecap:butt;stroke-linejoin:miter;stroke:rgb(100%,100%,100%);stroke-opacity:1;stroke-miterlimit:4;" d="M 0.678898 34.408125 L 27.646193 34.408125 L 27.646193 6.936328 L 0.680311 6.936328 L 0.680311 34.408125 Z M 0.678898 34.408125 " transform="matrix(5.529412,0,0,5.555556,0,0)"/>
<path style=" stroke:none;fill-rule:nonzero;fill:rgb(3.137255%,48.235294%,73.333333%);fill-opacity:1;" d="M 152.867188 38.535156 L 3.921875 38.535156 L 41.582031 8.105469 L 183.703125 8.105469 L 183.703125 159.820312 L 152.871094 191.070312 L 152.871094 38.535156 "/>
<path style="fill:none;stroke-width:0.5;stroke-linecap:butt;stroke-linejoin:miter;stroke:rgb(100%,100%,100%);stroke-opacity:1;stroke-miterlimit:4;" d="M 27.646193 6.936328 L 0.709275 6.936328 L 7.520155 1.458281 L 33.222906 1.458281 L 33.222906 28.767656 L 27.6469 34.392656 L 27.6469 6.936328 Z M 27.646193 6.936328 L 33.222906 1.458281 " transform="matrix(5.529412,0,0,5.555556,0,0)"/>
<path style="fill:none;stroke-width:1.78125;stroke-linecap:butt;stroke-linejoin:miter;stroke:rgb(100%,100%,100%);stroke-opacity:1;stroke-miterlimit:4;" d="M 24.149975 28.885078 L 18.243351 28.885078 L 10.230095 12.713203 L 4.931017 12.713203 " transform="matrix(5.529412,0,0,5.555556,0,0)"/>
<path style="fill:none;stroke-width:1.78125;stroke-linecap:butt;stroke-linejoin:miter;stroke:rgb(100%,100%,100%);stroke-opacity:1;stroke-miterlimit:4;" d="M 4.526222 28.859766 L 10.230095 28.859766 L 18.169174 12.767344 L 24.3499 12.767344 " transform="matrix(5.529412,0,0,5.555556,0,0)"/>
<path style=" stroke:none;fill-rule:nonzero;fill:rgb(100%,100%,100%);fill-opacity:1;" d="M 123.359375 54.515625 L 123.359375 86.226562 L 142.394531 70.976562 L 123.359375 54.515625 "/>
<path style="fill:none;stroke-width:0.2375;stroke-linecap:butt;stroke-linejoin:miter;stroke:rgb(100%,100%,100%);stroke-opacity:1;stroke-miterlimit:4;" d="M 22.309674 9.812812 L 22.309674 15.520078 L 25.752202 12.777188 Z M 22.309674 9.812812 " transform="matrix(5.529412,0,0,5.555556,0,0)"/>
<path style=" stroke:none;fill-rule:nonzero;fill:rgb(100%,100%,100%);fill-opacity:1;" d="M 123.359375 143.894531 L 123.359375 175.609375 L 142.394531 160.359375 L 123.359375 143.894531 "/>
<path style="fill:none;stroke-width:0.2375;stroke-linecap:butt;stroke-linejoin:miter;stroke:rgb(100%,100%,100%);stroke-opacity:1;stroke-miterlimit:4;" d="M 22.309674 25.901719 L 22.309674 31.608984 L 25.752202 28.864687 Z M 22.309674 25.901719 " transform="matrix(5.529412,0,0,5.555556,0,0)"/>
<path style=" stroke:none;fill-rule:nonzero;fill:rgb(100%,100%,100%);fill-opacity:1;" d="M 31.695312 86.792969 L 31.695312 55.082031 L 12.691406 70.328125 L 31.695312 86.792969 "/>
<path style="fill:none;stroke-width:0.2375;stroke-linecap:butt;stroke-linejoin:miter;stroke:rgb(100%,100%,100%);stroke-opacity:1;stroke-miterlimit:4;" d="M 5.732131 15.622734 L 5.732131 9.916172 L 2.295254 12.659062 Z M 5.732131 15.622734 " transform="matrix(5.529412,0,0,5.555556,0,0)"/>
<path style=" stroke:none;fill-rule:nonzero;fill:rgb(100%,100%,100%);fill-opacity:1;" d="M 31.695312 176.640625 L 31.695312 144.929688 L 12.691406 160.171875 L 31.695312 176.640625 "/>
<path style="fill:none;stroke-width:0.2375;stroke-linecap:butt;stroke-linejoin:miter;stroke:rgb(100%,100%,100%);stroke-opacity:1;stroke-miterlimit:4;" d="M 5.732131 31.795312 L 5.732131 26.087344 L 2.295254 28.832344 Z M 5.732131 31.795312 " transform="matrix(5.529412,0,0,5.555556,0,0)"/>
</g>
</svg>

<svg xmlns="http://www.w3.org/2000/svg" viewBox="0 0 33.75 36.25" height="36.25" width="33.75"><path d="M.679 34.408h26.967V6.936H.68v27.472z" fill="#087bbb"/><path d="M.679 34.408h26.967V6.936H.68v27.472z" fill="none" stroke="#fff" stroke-width=".5"/><path d="M27.646 6.936H.709L7.52 1.459h25.703v27.309l-5.576 5.625V6.936" fill="#087bbb"/><path d="M27.646 6.936H.709L7.52 1.458h25.703v27.31l-5.576 5.625V6.936zM27.646 6.936l5.577-5.478" fill="none" stroke="#fff" stroke-width=".5"/><path d="M24.15 28.885h-5.907L10.23 12.713H4.931" fill="none" stroke="#fff" stroke-width="1.78125"/><path d="M4.526 28.86h5.704l7.939-16.093h6.181" fill="none" stroke="#fff" stroke-width="1.78125"/><path d="M22.31 9.813v5.708l3.442-2.745-3.442-2.963" fill="#fff"/><path d="M22.31 9.813v5.707l3.442-2.743-3.442-2.964z" fill="none" stroke="#fff" stroke-width=".2375"/><path d="M22.31 25.901v5.709l3.442-2.745-3.442-2.964" fill="#fff"/><path d="M22.31 25.902v5.707l3.442-2.744-3.442-2.963z" fill="none" stroke="#fff" stroke-width=".2375"/><path d="M5.732 15.623V9.915l-3.437 2.744 3.437 2.964" fill="#fff"/><path d="M5.732 15.623V9.916l-3.437 2.743 3.437 2.964z" fill="none" stroke="#fff" stroke-width=".2375"/><path d="M5.732 31.795v-5.708l-3.437 2.744 3.437 2.964" fill="#fff"/><path d="M5.732 31.795v-5.708l-3.437 2.745 3.437 2.963z" fill="none" stroke="#fff" stroke-width=".2375"/></svg>
